ufans-frontend-package/public/assets/images/new-home/icon/edit-profile-theme-1.svg

<svg width="512" height="512" viewBox="0 0 512 512" fill="none" xmlns="http://www.w3.org/2000/svg">
<g clip-path="url(#clip0_1636_530)">
<path d="M481.996 30.006C462.647 10.656 436.922 0 409.559 0C382.196 0 356.47 10.656 337.121 30.005L50.8257 316.301C48.3897 318.737 46.6247 321.761 45.7007 325.08L0.732747 486.637C-1.20625 493.605 0.766747 501.078 5.89575 506.179C9.69575 509.959 14.7877 512 20.0017 512C21.8237 512 23.6617 511.75 25.4647 511.238L187.022 465.347C193.838 463.411 199.122 458.012 200.91 451.155C202.698 444.298 200.724 437.007 195.721 431.988L93.8688 329.827L331.184 92.511L419.442 180.769L237.768 361.948C229.947 369.748 229.93 382.411 237.73 390.232C245.529 398.054 258.194 398.07 266.014 390.271L481.994 174.879C501.344 155.53 512 129.805 512 102.442C512 75.079 501.344 49.354 481.996 30.006ZM143.395 436.158L48.8267 463.02L75.3117 367.868L143.395 436.158ZM453.73 146.575L447.765 152.524L359.469 64.227L365.407 58.289C377.2 46.495 392.88 40 409.559 40C426.238 40 441.917 46.495 453.711 58.29C465.505 70.083 472 85.763 472 102.442C472 119.121 465.505 134.801 453.73 146.575Z" fill="#6661E7"/>
</g>
<defs>
<clipPath id="clip0_1636_530">
<rect width="512" height="512" fill="white"/>
</clipPath>
</defs>
</svg>

<svg xmlns="http://www.w3.org/2000/svg" xmlns:xlink="http://www.w3.org/1999/xlink" width="512" height="512" viewBox="0 0 512 512">
  <defs>
    <clipPath id="clip-path">
      <rect id="Rectangle_1" data-name="Rectangle 1" width="512" height="512" fill="#e44499"/>
    </clipPath>
  </defs>
  <g id="edit-profile-theme-1" clip-path="url(#clip-path)">
    <path id="Path_1" data-name="Path 1" d="M482,30.006a102.44,102.44,0,0,0-144.875,0L50.826,316.3a20,20,0,0,0-5.126,8.78L.733,486.637a20,20,0,0,0,24.732,24.6l161.557-45.891a20,20,0,0,0,8.7-33.359L93.869,329.827,331.184,92.511l88.258,88.258L237.768,361.948a20,20,0,0,0,28.246,28.323l215.98-215.392a102.439,102.439,0,0,0,0-144.873ZM143.4,436.158,48.827,463.02l26.485-95.152ZM453.73,146.575l-5.965,5.949-88.3-88.3,5.938-5.938a62.441,62.441,0,1,1,88.323,88.286Z" fill="#e44499"/>
  </g>
</svg>
